**kern	**kern
*staff2	*staff1
=1-	=1-
*clefF4	*clefG2
*k[]	*k[]
*a:	*a:
*M3/4	*M3/4
4AA/	4r
12E\L	2r
12A\	.
12c\J	.
4e\	.
=2	=2
4D\	2.r
2B\ 2d#\	.
=3	=3
4AA/	2.r
12E\L	.
12A\	.
12c\J	.
4e\	.
=4	=4
4D\	4r
2B\ 2d#\	4r
.	28ee\LL	
.	28ff\
.	28gg\
.	28aa\
.	28bb\
.	28ccc\
.	28ddd\JJ
=5	=5
4AA/	4eee\
12E\L	8r
12A\	.
.	8fff\
12c\J	.
4e\	4eee\
=6	=6
4D\	8r
.	8ee\
2B\ 2d#\	8ff\L
.	8gg\J
.	8ccc\
.	16r
.	16bb\
=7	=7
!!linebreak:original
4AA/	4gg#\
12E\L	4r
12A\	.
12c\J	.
4e\	4aa\
=8	=8
2.r	16bb-\LL
.	16aa-\
.	16gg\
.	16ff\JJ
.	8ee\L
.	8gg\J
.	8ccc\L
.	8eee\J
=9	=9
4CC/	8aaa-\
.	8r
8GG/L	4r
8E-/J	.
4B-\	16ggg\LL
.	16fff\
.	16eee-\
.	16ddd\JJ
=10	=10
4DD/	4ddd-\
8GG/L	4r
8F/J	.
4B-\	16ccc\LL
.	16bb-\
.	16aa-\
.	16gg\JJ
=11	=11
4DD#/	2gg-\
4C\ 4A\	.
4C#\ 4A#\	8.gg-\L
.	16ff\Jk
=12	=12
!!linebreak:original
4D\ 4B\	8ee\L
.	8cc#\J
4FF/	8gg#\L
.	8ee\J
8.FF/L	8ccc#\L
.	8ggn\J
16EE/Jk	.
=13	=13
4AAA/	8eee\
.	8r
12E\L	4r
12A\	.
12c\J	.
4f\	4eee\
=14	=14
4EE/	16ddd\LL
.	16ccc\
.	16bb-\
.	16aa\JJ
12F\L	16gg\LL
.	16ff\
12B-\	.
.	16ee\
12d-\J	.
.	16ff\JJ
4f\	16gg\LL
.	16aa\
.	16bb-\
.	16ccc\JJ
=15	=15
4BBB/	4ddd\
12F#\L	4r
12B\	.
12d\J	.
4f#\	4ddd\
=16	=16
!!linebreak:original
[4b\	16ccc\LL
.	16bb\
.	16aa\
.	16gg\JJ
16b\LL]	16aa-\LL
16g\	16gg-\
16e\	16ggn\
16c\JJ	16ff\JJ
16a\LL	16gg-\LL
16f\	16ee\
16d\	16ff\
16B\JJ	16dd#\JJ
=17	=17
4c\	4ee\
4e\ 4g\ 4cc\	12gg\L
.	12ccc\
.	12eee\J
4r	4gg\ 4ggg\
=18	=18
4AAA#/ 4AA#/	4r
4E\ 4A\ 4c\ 4f\	16gg\LL 16aa\ 16ggg#\
.	16fff#\
.	16eee\
.	16ddd\JJ
4r	16ccc#\LL
.	16cccn\
.	16bb\
.	16aa#\JJ
=19	=19
!!linebreak:original
16b\LL	16bb\LL
16a\	16gg\
16b-\	16ee\
16a-\JJ	16dd\JJ
16an\LL	8r
16g\	.
16a-\	8ee\ 8eee\
16f#\JJ	.
16g\LL	8ee\L 8eee\
16fn\	.
16e\	8ee\J 8eee\
16d\JJ	.
=20	=20
4C/	4gg\ 4ggg\
12D\L	4r
12G\	.
12c\J	.
4g\	4gg\ 4ggg\
=21	=21
4F#\	8r
.	8gg\ 8fff#\
2e-\ 2g\ 2cc\	8gg\L 8fffn\
.	8gg\J 8eee\
.	8gg\L 8eee-\
.	8gg\J 8ddd\
=22	=22
4B\	4gg\ 4ccc#\
12d\L	4r
12f#\	.
12b\J	.
4dd\	4gg\ 4bb\
=23	=23
!!pagebreak:original
16A\LL	16aa\LL
16c\	16ccc\
16f\	16fff\
16e\JJ	16eee\JJ
8e-\	16eee-\LL
.	16bb-\
8r	16gg\
.	16bb-\JJ
16AA-/LL	16ddd\LL
16BB-/	16bb-\
16C/	16ff\
16D/JJ	16bb-\JJ
=24	=24
4E-\	16r
.	16cc\LL
.	16dd\
.	16ff\JJ
4d\ 4f\ 4b-\	16bb-\LL
.	16cc\
.	16dd\
.	16gg\JJ
4d\ 4f\ 4a\ 4cc\	16ccc\LL
.	16ff\
.	16aa\
.	16ccc\JJ
=25	=25
4EEE/ 4EE/	4r
4E\ 4A\ 4c\ 4f\	16aa\LL 16aaa\
.	16ggg\
.	16fff\
.	16eee-\JJ
4r	16ccc#\LL
.	16bb\
.	16aa\
.	16gg\JJ
=26	=26
!!linebreak:original
2f\ 2b-\ 2dd-\	16ff\LL
.	16ee\
.	16dd#\
.	16ee\JJ
.	16gg#\LL
.	16ee\
.	16ddn\
.	16ee\JJ
4E\	16bb\LL
.	16ee\
.	16ccc\
.	16ee\JJ
=27	=27
4AA/	16bb\LL
.	16ee\
.	16aa\
.	16ccc\JJ
12C\L	16eee\LL
.	16ccc\
12A\	.
.	16aa\
12c\J	.
.	16ee\JJ
4f\	16ddd\LL
.	16bb-\
.	16gg\
.	16ff\JJ
=28	=28
8g#\L	16dd\LL
.	16ee\
8f#\J	16dd\
.	16a\JJ
8gn\L	16dd\LL
.	16ff\
8fn\J	16dd\
.	16b\JJ
8e\L	16ee\LL
.	16gg#\
8d\J	16ee\
.	16cc#\JJ
=29	=29
!!linebreak:original
4.c\	16ff\LL
.	16aa\
.	16ff\
.	16dd\JJ
.	16ff\LL
.	16bb\
4d\	16ff\
.	16dd\JJ
.	16ff\LL
.	16cc\
8g\	16ff\
.	16dd-\JJ
=30	=30
4c\	16ee\LL
.	16ccc\
.	16aa\
.	16cc\JJ
12E\L	16aa\LL
.	16eee\
12A\	.
.	16aa\
12c\J	.
.	16ee\JJ
4f\	16aa\LL
.	16ccc\
.	16aa\
.	16cc\JJ
=31	=31
4D\	16aa\LL
.	16eee\
.	16aa\
.	16ee\JJ
2B\ 2d#\	16aa\LL
.	16ccc\
.	16aa\
.	16cc\JJ
.	16aa\LL
.	16eee\
.	16aa\
.	16ee\JJ
=32	=32
!!linebreak:original
4AA/	16aa\LL
.	16ccc\
.	16aa\
.	16ee\JJ
12E\L	16aa\LL
.	16eee\
12A\	.
.	16aa\
12c\J	.
.	16cc\JJ
4f\	16aa\LL
.	16ccc\
.	16aa\
.	16cc\JJ
=33	=33
4DD/	16aa\LL
.	16eee\
.	16aa\
.	16ee\JJ
2B\ 2d#\	16aa\LL
.	16ccc\
.	16aa\
.	16cc\JJ
.	16aa\LL
.	16eee\
.	16aa\
.	16ee\JJ
=34	=34
4BBB-/	16r
.	16ee-\LL
.	16ff\
.	16gg\JJ
[2F\ [2d-\ [2f\	16ff#\LL
.	16gg#\
.	16aa#\
.	16aan\JJ
.	16bb\LL
.	16ccc#\
.	16cccn\
.	16ddd\JJ
=35	=35
!!linebreak:original
2.F\_ 2.d-\_ 2.f\_	16eee\LL
.	16eee-\
.	16fff\
.	16ggg\JJ
.	16fff#\LL
.	16ggg#\
.	16aaa#\
.	16cccc\JJ
.	16dddd\LL
.	16eeee\
.	16ffff#\
.	16aaaa-\JJ
=36	=36
4F\] 4d-\] 4f\]	16aaaa#\
.	16r
.	8r
2r	2r
=37	=37
*^	*^
2FF/	4r	4r	2r
.	[4BB-\ [4E-\	12ee-/L	.
.	.	12gg-/	.
.	.	12ccc-/J	.
8EE/	8BB-\] 8E-\]	8aa/	8ee-\
8r	8r	8r	8r
*	*	*v	*v
=38	=38	=38
4r	2.AAA\	4r
2EE/	.	2a\ 2ff\
*v	*v	*
==	==
*-	*-
